X:531
T: Highland Cathedral
R: Slow Air
M: 4/4
L: 1/8
K: G
"G"G2-GA/B/ AG DG|"D"A2-AB "G"B4|B2-Bc/d/ cB AG|"D"A2-ABD4|
"C"E2-EF "G"GD FG|"D"d2-dc "G"B4|"D"A2-AB/c/ "G"BG DG|"D"A2-AG A4::
"D"F2-FD A2 FA|"G"B2-BF "D"F2-FE|D2 D/E/F "C"E4|"D"F2 F/G/A "C"E4|
"D"F2-FD A2 FA|B2-BF F2-FE|D2 D/E/F "C"E2-ED|"D"D8:|

%%newpage
